#pragma output_path("test.txt")
#pragma combine_callbacks(true)
#pragma max_callback_depth(420)

// #pragma optimize("none")

function load(array1: int[])
    declare tmp[num_elements(array1)]: int[]
    for idx, val in pairs(array1)
        tmp[idx] := val
    end for
	return tmp
end function


// on init
// 	declare arr: int[] := [1,2,3,4]
// 	declare arr2: int[]
// 	load(arr)
// end on

namespace BrowserFont
	declare types: int[] := [ ...
		CONTROL_PAR_FONT_TYPE, ... 
		CONTROL_PAR_FONT_TYPE_ON, ... 
		CONTROL_PAR_FONT_TYPE_OFF_PRESSED, ... 
		CONTROL_PAR_FONT_TYPE_ON_PRESSED, ... 
		CONTROL_PAR_FONT_TYPE_OFF_HOVER, ... 
		CONTROL_PAR_FONT_TYPE_ON_HOVER ...
	]
	declare ty: int[] := types
end namespace

// on init
// 	message(BrowserFont.ty[0])
// end on


on init
	declare stringggg: string := "sdfljlfjrlfiajrslfkasdjlfkasjdflaksjdflaksdjflaskdjfalskdjf alsdkfj asldkfja sldkfja sldkfja sldkfja sdfljlfjrlfiajrslfkasdjlfkasjdflaksjdflaksdjflaskdjfalskdjf alsdkfj asldkfja sldkfja sldkfja sldkfjasdfljlfjrlfiajrslfkasdjlfkasjdflaksjdflaksdjflaskdjfalskdjf alsdkfj asldkfja sldkfja sldkfja sldkfjasdfljlfjrlfiajrslfkasdjlfkasjdflaksjdflaksdjflaskdjfalskdjf alsdkfj asldkfja sldkfja sldkfja sldkfjasdfljlfjrlfiajrslfkasdjlfkasjdflaksjdflaksdjflaskdjfalskdjf alsdkfj asldkfja sldkfja sldkfja sldkfjasdfljlfjrlfiajrslfkasdjlfkasjdflaksjdflaksdjflaskdjfalskdjf alsdkfj asldkfja sldkfja sldkfja sldkfjasdfljlfjrlfiajrslfkasdjlfkasjdflaksjdflaksdjflaskdjfalskdjf alsdkfj asldkfja sldkfja sldkfja sldkfjasdfljlfjrlfiajrslfkasdjlfkasjdflaksjdflaksdjflaskdjfalskdjf alsdkfj asldkfja sldkfja sldkfja sldkfjasdfljlfjrlfiajrslfkasdjlfkasjdflaksjdflaksdjflaskdjfalskdjf alsdkfj asldkfja sldkfja sldkfja sldkfjasldkfja sldkfja sldkfja sldkfj asldkfj alsdkfj alskfj "

	
	
end on

on persistence_changed
	
	declare array[25]: int[]
	if (dodododo(array))
		message("df")
	end if		
	// dodododo()
	// dodododo()
end on

function dodododo(ref array: int[]): boolean
	load_array(array, 2)
	for i in range(340)
		message(i)
		if (i = 4)
			return true
		end if			
	end for
	return false
end function	