#pragma output_path("test.txt")
#pragma combine_callbacks(true)
#pragma max_callback_depth(420)


struct Point
	x: int, y: int
end struct	

struct Array
	points[100]: Point[]

	function __init__(self)
		for idx, p in pairs(self.points)
			p := new Point(idx, int(real(idx)**2.0))
		end for			
	end function		
end struct	

declare point_array := new Array()
declare point_array2 := new Array()

on note 
	
end on	