#pragma output_path("test.txt")
#pragma combine_callbacks(true)
#pragma max_callback_depth(420)

// #pragma optimize("none")

function load(array1: int[])
    declare tmp[num_elements(array1)]: int[]
    for idx, val in pairs(array1)
        tmp[idx] := val
    end for
	return tmp
end function


on init
	declare arr: int[] := [1,2,3,4]
	declare arr2: int[]
	load(arr)
end on

